src/standard/hardware/virtual-server.svg

<svg xmlns="http://www.w3.org/2000/svg" viewBox="0 0 36 36">
  <path d="M31 12.38H5a.63.63 0 0 0-.63.62v10a.63.63 0 0 0 .63.62h26a.62.62 0 0 0 .62-.62V13a.62.62 0 0 0-.62-.62Zm-.63 10H5.62v-8.76h24.75Z"/>
  <path d="M9 18.62h6a.62.62 0 0 0 0-1.24H9a.62.62 0 1 0 0 1.24Zm15.2 6.27a.63.63 0 1 0 .63.62.62.62 0 0 0-.63-.62Zm-15.5 0a.63.63 0 1 0 .62.62.63.63 0 0 0-.62-.62Zm9.3 0a.63.63 0 0 0 0 1.25.63.63 0 0 0 0-1.25Zm9.3 0a.63.63 0 1 0 .63.62.62.62 0 0 0-.63-.62Zm-6.2 0a.63.63 0 1 0 .63.62.63.63 0 0 0-.63-.62Zm-15.5 0a.63.63 0 1 0 .62.62.63.63 0 0 0-.62-.62Zm24.8 0a.63.63 0 1 0 .63.62.62.62 0 0 0-.63-.62Zm-18.6 0a.63.63 0 1 0 .62.62.63.63 0 0 0-.62-.62Zm3.1 0a.63.63 0 1 0 .62.62.63.63 0 0 0-.62-.62ZM2.5 12.87a.63.63 0 1 0 .62.62.63.63 0 0 0-.62-.62Zm0 9.01a.63.63 0 1 0 .62.63.63.63 0 0 0-.62-.63Zm0-6.01a.63.63 0 1 0 .62.63.63.63 0 0 0-.62-.63Zm0 3.01a.63.63 0 1 0 .62.62.63.63 0 0 0-.62-.62Zm6.2-7.77a.63.63 0 1 0-.63-.62.62.62 0 0 0 .63.62Zm3.1 0a.63.63 0 1 0-.63-.62.62.62 0 0 0 .63.62Zm3.1 0a.63.63 0 1 0-.63-.62.62.62 0 0 0 .63.62Zm9.3 0a.63.63 0 1 0-.62-.62.63.63 0 0 0 .62.62Zm-3.1 0a.63.63 0 1 0-.62-.62.63.63 0 0 0 .62.62Zm-3.1 0a.63.63 0 1 0-.63-.62.63.63 0 0 0 .63.62Zm9.3 0a.63.63 0 1 0-.62-.62.63.63 0 0 0 .62.62Zm3.1 0a.63.63 0 1 0-.62-.62.63.63 0 0 0 .62.62Zm-24.8 0a.63.63 0 1 0-.6-.62.62.62 0 0 0 .6.62Zm27.9 7.77a.62.62 0 0 0-.62.62.63.63 0 1 0 1.25 0 .62.62 0 0 0-.63-.62Zm0 3a.63.63 0 1 0 .63.63.63.63 0 0 0-.63-.63Zm0-9.01a.63.63 0 1 0 .63.62.62.62 0 0 0-.63-.62Zm0 3a.63.63 0 1 0 .63.63.63.63 0 0 0-.63-.63Zm0-6.01a.63.63 0 1 0 .63.62.62.62 0 0 0-.63-.62Zm-31.01 0a.63.63 0 1 0 .63.62.62.62 0 0 0-.63-.62Zm0 15.03a.63.63 0 1 0 .63.62.62.62 0 0 0-.63-.62Zm31.01 0a.63.63 0 1 0 .63.62.62.62 0 0 0-.63-.62ZM27 17.37a.63.63 0 1 0 .63.62.62.62 0 0 0-.63-.62Z"/>
</svg>

<svg id="ebba7714-5633-43f5-80d3-c98e0849acf2" data-name="Icon" xmlns="http://www.w3.org/2000/svg" viewBox="0 0 36 36">
  <g>
    <path d="M31,12.38H5a.63.63,0,0,0-.63.62V23a.63.63,0,0,0,.63.62H31a.62.62,0,0,0,.62-.62V13A.62.62,0,0,0,31,12.38Zm-.63,10H5.62V13.62H30.37Z"/>
    <path d="M9,18.62h6a.62.62,0,0,0,0-1.24H9a.62.62,0,1,0,0,1.24Z"/>
    <path d="M24.2,24.89a.63.63,0,1,0,.63.62A.62.62,0,0,0,24.2,24.89Z"/>
    <path d="M8.7,24.89a.63.63,0,1,0,.62.62A.63.63,0,0,0,8.7,24.89Z"/>
    <path d="M18,24.89a.63.63,0,0,0,0,1.25.63.63,0,0,0,0-1.25Z"/>
    <path d="M27.3,24.89a.63.63,0,1,0,.63.62A.62.62,0,0,0,27.3,24.89Z"/>
    <path d="M21.1,24.89a.63.63,0,1,0,.63.62A.63.63,0,0,0,21.1,24.89Z"/>
    <path d="M5.6,24.89a.63.63,0,1,0,.62.62A.63.63,0,0,0,5.6,24.89Z"/>
    <path d="M30.4,24.89a.63.63,0,1,0,.63.62A.62.62,0,0,0,30.4,24.89Z"/>
    <path d="M11.8,24.89a.63.63,0,1,0,.62.62A.63.63,0,0,0,11.8,24.89Z"/>
    <path d="M14.9,24.89a.63.63,0,1,0,.62.62A.63.63,0,0,0,14.9,24.89Z"/>
    <path d="M2.5,12.87a.63.63,0,1,0,.62.62A.63.63,0,0,0,2.5,12.87Z"/>
    <path d="M2.5,21.88a.63.63,0,1,0,.62.63A.63.63,0,0,0,2.5,21.88Z"/>
    <path d="M2.5,15.87a.63.63,0,1,0,.62.63A.63.63,0,0,0,2.5,15.87Z"/>
    <path d="M2.5,18.88a.63.63,0,1,0,.62.62A.63.63,0,0,0,2.5,18.88Z"/>
    <path d="M8.7,11.11a.63.63,0,1,0-.63-.62A.62.62,0,0,0,8.7,11.11Z"/>
    <path d="M11.8,11.11a.63.63,0,1,0-.63-.62A.62.62,0,0,0,11.8,11.11Z"/>
    <path d="M14.9,11.11a.63.63,0,1,0-.63-.62A.62.62,0,0,0,14.9,11.11Z"/>
    <path d="M24.2,11.11a.63.63,0,1,0-.62-.62A.63.63,0,0,0,24.2,11.11Z"/>
    <path d="M21.1,11.11a.63.63,0,1,0-.62-.62A.63.63,0,0,0,21.1,11.11Z"/>
    <path d="M18,11.11a.63.63,0,1,0-.63-.62A.63.63,0,0,0,18,11.11Z"/>
    <path d="M27.3,11.11a.63.63,0,1,0-.62-.62A.63.63,0,0,0,27.3,11.11Z"/>
    <path d="M30.4,11.11a.63.63,0,1,0-.62-.62A.63.63,0,0,0,30.4,11.11Z"/>
    <path d="M5.6,11.11A.63.63,0,1,0,5,10.49.62.62,0,0,0,5.6,11.11Z"/>
    <path d="M33.5,18.88a.62.62,0,0,0-.62.62.63.63,0,1,0,1.25,0A.62.62,0,0,0,33.5,18.88Z"/>
    <path d="M33.5,21.88a.63.63,0,1,0,.63.63A.63.63,0,0,0,33.5,21.88Z"/>
    <path d="M33.5,12.87a.63.63,0,1,0,.63.62A.62.62,0,0,0,33.5,12.87Z"/>
    <path d="M33.5,15.87a.63.63,0,1,0,.63.63A.63.63,0,0,0,33.5,15.87Z"/>
    <path d="M33.5,9.86a.63.63,0,1,0,.63.62A.62.62,0,0,0,33.5,9.86Z"/>
    <path d="M2.49,9.86a.63.63,0,1,0,.63.62A.62.62,0,0,0,2.49,9.86Z"/>
    <path d="M2.49,24.89a.63.63,0,1,0,.63.62A.62.62,0,0,0,2.49,24.89Z"/>
    <path d="M33.5,24.89a.63.63,0,1,0,.63.62A.62.62,0,0,0,33.5,24.89Z"/>
    <path d="M27,17.37a.63.63,0,1,0,.63.62A.62.62,0,0,0,27,17.37Z"/>
  </g>
</svg>
